!!!OTL: AN DER QUELLE SASS DER KNABE
!!!ARE: Europa, Mitteleuropa, Deutschland
!!!SCT: B0464B
!!!YEM: Copyright 1995, estate of Helmut Schaffrath.
**kern
*ICvox
*Ivox
*M4/4
*k[f#]
*G:
{8b
8a
=1
4.g
8g
4.g
8f#
=2
8f#
8e
4e
4r}
{8cc
8b
=3
4.a
8a
4.dd
8f#
=4
2g
4r}
{8b
8a
=5
4.g
8g
4.g
8f#
=6
8f#
8e
4e
4r}
{8cc
8b
=7
4.a
8a
4.dd
8f#
=8
2g
4r}
{8f#
8g
=9
4.a
8a
4dd
8cc
8a
=10
8cc
8b
4b
4r}
{8a
8b
=11
4dd
8cc
8a
4cc
8b
8g
=12
2a
4r}
{8b
8a
=13
4.g
8g
4.g
8f#
=14
8f#
8e
4e
4r}
{8cc
8b
=15
4.a
8a
4.dd
8f#
=16
2g
4r}
==
!!!AGN: Liebes - Lied, Leid, Klage, Sehnsucht
!!!ONB: ESAC (Essen Associative Code) Database: BOEHME
!!!AMT: simple quadruple
!!!AIN: vox
!!!EED: Helmut Schaffrath
!!!EEV: 1.0
*-
